picto/jetty-right.svg

<svg class="color-immutable" width="24" height="24" viewBox="0 0 24 24" fill="none" xmlns="http://www.w3.org/2000/svg"><g clip-path="url(#a)"><path d="M0 22.5v-21C0 .675.675 0 1.5 0h21c.825 0 1.5.675 1.5 1.5v21c0 .825-.675 1.5-1.5 1.5h-21C.675 24 0 23.325 0 22.5Z" fill="#2D327D"/><path d="M3.75 8.25c.207 0 .375.168.375.375v1.5a.376.376 0 0 1-.375.376H3v2.25h.75c.207 0 .375.168.375.374v1.5A.375.375 0 0 1 3.75 15H3v4.575a5.562 5.562 0 0 0 1.113-.115l2.519-.532a8.45 8.45 0 0 1 .868-.066c.29.006.58.029.869.066l2.52.532c.365.076.738.114 1.111.115a5.545 5.545 0 0 0 1.112-.115l2.52-.532c.287-.037.577-.059.868-.066.291.006.581.029.868.066l1.606.339L21.224 15h-9.037l-.375-2.25h1.313V10.5H8.512l-.375-2.25h.525a.375.375 0 0 0 0-.75H3v.75h.75Zm4.725 6.375v-1.5c0-.206.168-.374.374-.374h1.961c.183 0 .339.132.37.313l.25 1.5a.376.376 0 0 1-.369.436H8.849a.376.376 0 0 1-.374-.375Zm-3.676 0v-1.5c0-.206.168-.374.375-.374h2.25c.207 0 .375.168.375.374v1.5a.374.374 0 0 1-.374.375h-2.25a.377.377 0 0 1-.376-.375Zm0-4.5v-1.5c0-.207.168-.375.375-.375h1.96c.184 0 .34.133.371.313l.25 1.499a.376.376 0 0 1-.369.438H5.175a.375.375 0 0 1-.376-.375ZM6.75 19.632c.25-.032.5-.05.751-.056.251.006.502.024.75.056l2.492.525c.414.087.835.13 1.258.131a6.19 6.19 0 0 0 1.258-.131l2.492-.525c.25-.032.5-.05.751-.056.251.006.501.024.75.056l2.493.525c.413.087.834.13 1.257.131V21a6.896 6.896 0 0 1-1.403-.145l-2.464-.52a7.036 7.036 0 0 0-.633-.047 7.478 7.478 0 0 0-.634.047l-2.463.52a6.898 6.898 0 0 1-2.808 0l-2.464-.52a7.01 7.01 0 0 0-.633-.047 7.478 7.478 0 0 0-.634.047l-2.463.52A6.881 6.881 0 0 1 3 21v-.712a6.2 6.2 0 0 0 1.259-.131l2.491-.525Z" fill="#fff"/></g><defs><clipPath id="a"><path fill="#fff" d="M0 0h24v24H0z"/></clipPath></defs></svg>

<svg class="color-immutable" width="24" height="24" viewBox="0 0 24 24" fill="none" xmlns="http://www.w3.org/2000/svg"><path d="M0 22.5V1.5C0 0.675 0.675 0 1.5 0H22.5C23.325 0 24 0.675 24 1.5V22.5C24 23.325 23.325 24 22.5 24H1.5C0.675 24 0 23.325 0 22.5Z" fill="#2D327D"/><path d="M3.75 8.25C3.957 8.25 4.125 8.418 4.125 8.625V10.125C4.125 10.332 3.957 10.501 3.75 10.501H3V12.751H3.75C3.957 12.751 4.125 12.919 4.125 13.125V14.625C4.125 14.832 3.957 15 3.75 15H3V19.575C3.373 19.574 3.746 19.536 4.113 19.46L6.632 18.928C6.921 18.891 7.211 18.869 7.5 18.862C7.79 18.868 8.08 18.891 8.369 18.928L10.889 19.46C11.254 19.536 11.627 19.574 12 19.575C12.373 19.574 12.746 19.536 13.112 19.46L15.632 18.928C15.919 18.891 16.209 18.869 16.5 18.862C16.791 18.868 17.081 18.891 17.368 18.928L18.974 19.267L21.224 15H12.187L11.812 12.75H13.125V10.5H8.512L8.137 8.25H8.662C8.869 8.25 9.037 8.082 9.037 7.875C9.037 7.668 8.869 7.5 8.662 7.5H3V8.25H3.75ZM8.475 14.625V13.125C8.475 12.919 8.643 12.751 8.849 12.751H10.81C10.993 12.751 11.149 12.883 11.18 13.064L11.43 14.564C11.433 14.584 11.436 14.605 11.436 14.625C11.436 14.831 11.268 15 11.061 15H8.849C8.643 15 8.475 14.831 8.475 14.625ZM4.799 14.625V13.125C4.799 12.919 4.967 12.751 5.174 12.751H7.424C7.631 12.751 7.799 12.919 7.799 13.125V14.625C7.8 14.831 7.632 15 7.425 15H5.175C4.968 15 4.799 14.831 4.799 14.625ZM4.799 10.125V8.625C4.799 8.418 4.967 8.25 5.174 8.25H7.134C7.318 8.25 7.474 8.383 7.505 8.563L7.755 10.062C7.759 10.083 7.76 10.104 7.76 10.124C7.76 10.331 7.592 10.5 7.386 10.5H5.175C4.968 10.501 4.799 10.332 4.799 10.125Z" fill="white"/><path d="M6.75 19.632C7 19.6 7.25 19.582 7.501 19.576C7.752 19.582 8.003 19.6 8.251 19.632L10.743 20.157C11.157 20.244 11.578 20.287 12.001 20.288C12.424 20.287 12.844 20.244 13.259 20.157L15.751 19.632C16.001 19.6 16.251 19.582 16.502 19.576C16.753 19.582 17.003 19.6 17.252 19.632L19.745 20.157C20.158 20.244 20.579 20.287 21.002 20.288V21C20.531 20.999 20.061 20.952 19.599 20.855L17.135 20.335C16.925 20.31 16.714 20.294 16.502 20.288C16.29 20.295 16.079 20.31 15.868 20.335L13.405 20.855C12.943 20.952 12.473 20.999 12.001 21C11.529 20.999 11.059 20.952 10.597 20.855L8.133 20.335C7.924 20.31 7.712 20.294 7.5 20.288C7.288 20.295 7.077 20.31 6.866 20.335L4.403 20.855C3.942 20.952 3.472 20.999 3 21V20.288C3.423 20.287 3.844 20.244 4.259 20.157L6.75 19.632Z" fill="white"/></svg>
